resources/haticons/SVG/chrome_reader_mode.svg

<!-- Generated by IcoMoon.io -->
<svg version="1.1" xmlns="http://www.w3.org/2000/svg" width="24" height="24" viewBox="0 0 24 24">
<title>chrome_reader_mode</title>
<path d="M21 18.984v-12.984h-9v12.984h9zM21 3.984q0.797 0 1.406 0.609t0.609 1.406v12.984q0 0.797-0.609 1.406t-1.406 0.609h-18q-0.797 0-1.406-0.609t-0.609-1.406v-12.984q0-0.797 0.609-1.406t1.406-0.609h18zM12.984 14.484h7.031v1.5h-7.031v-1.5zM12.984 9.516h7.031v1.5h-7.031v-1.5zM12.984 12h7.031v1.5h-7.031v-1.5z"></path>
</svg>

<svg xmlns="http://www.w3.org/2000/svg" width="24" height="24"><path d="M21 18.984V6h-9v12.984h9zm0-15q.797 0 1.406.609t.609 1.406v12.984q0 .797-.609 1.406T21 20.998H3q-.797 0-1.406-.609t-.609-1.406V5.999q0-.797.609-1.406T3 3.984h18zm-8.016 10.5h7.031v1.5h-7.031v-1.5zm0-4.968h7.031v1.5h-7.031v-1.5zm0 2.484h7.031v1.5h-7.031V12z"/></svg>
